icons/1_Primary/Floatplane.svg

<svg xmlns="http://www.w3.org/2000/svg" width="1024" height="1024" fill="none">
   <g clip-path="url(#a)">
      <path fill="#9ABEFF" d="M512 1024c282.77 0 512-229.23 512-512S794.77 0 512 0 0 229.23 0 512s229.23 512 512 512Z"/>
      <path fill="#fff" d="M646.7 683.3c-38.6 32.6-87 50.5-137.9 50.5-57.2 0-110.7-22.3-151.2-62.6C317.1 630.7 295 577 295 520c0-51.2 17.9-99.6 50.5-137.9L326 357.2c-38.6 43.3-62.1 100.5-62.1 163.1 0 135.4 109.6 244.9 244.9 244.9 62.6 0 119.8-23.5 163.1-62.1l-25.2-19.8ZM441.5 316.9c21.4-7 44-10.7 67.2-10.7 57.2 0 110.7 22.3 151.2 62.6 40.5 40.5 62.6 94.2 62.6 151.2 0 23.3-3.7 45.8-10.7 67.2l24.2 24.2c11.4-28.1 17.7-59.1 17.7-91.4 0-135.4-109.6-244.9-244.9-244.9-32.3 0-63.3 6.3-91.4 17.7l24.1 24.1Zm28.9 73.8L337.3 253.2l-20.7 32.3c-1.9 3-1.6 7 .7 9.8l115.4 148.2 37.7-52.8Zm-43.3 181.6-53.5-40.2-9.8 16.5c-1.2 1.9-.9 4.2.7 5.8l45.1 48.9 17.5-31Zm96.1-127-12.3-12.8 3.3-13c1.4-5.8 1.9-10.5 1.4-13.3-1.9-8.4-5.8-14.7-5.8-14.7L392.9 516.7s7.9 7.7 19.3-1.2c5.1-3.9 25.4-20.5 47-38.4l19.8 25.4 44.2-57.2Zm113.9 112.2 3.3-13c1.2-4.4 1.9-8.1 1.4-10.7-1.4-8.4-4.7-14.7-4.7-14.7L512 635.8s7.7 7.9 19.5 0c5.8-3.9 30.5-21.2 55.1-38.8l147 114.5c2.8 2.3 6.7 2.6 9.8.7l32.3-20.7-138.6-134Zm-180 45.3c18.8-14.4 45.1-34.7 68.6-52.8l26.5 20.7 43.5-52.8-14.4-14 4.7-16.5c2.3-8.4 3.3-14.9 2.6-18.8-2.3-12.1-7.7-20.9-7.7-20.9L408.7 619.8s5.4 4.4 16.5 0l48.6 44.9c1.6 1.4 3.9 1.6 5.8.7l16.5-9.8-39-52.8Z"/>
   </g>
   <defs>
      <clipPath id="a">
         <path fill="#fff" d="M0 0h1024v1024H0z"/>
      </clipPath>
   </defs>
</svg>

<svg width="1024" height="1024" viewBox="0 0 1024 1024" fill="none" xmlns="http://www.w3.org/2000/svg">
<g clip-path="url(#clip0_2_2211)">
<path d="M512 1024C794.77 1024 1024 794.77 1024 512C1024 229.23 794.77 0 512 0C229.23 0 0 229.23 0 512C0 794.77 229.23 1024 512 1024Z" fill="#9ABEFF"/>
<path d="M646.7 683.3C608.1 715.9 559.7 733.8 508.8 733.8C451.6 733.8 398.1 711.5 357.6 671.2C317.1 630.7 295 577 295 520C295 468.8 312.9 420.4 345.5 382.1L326 357.2C287.4 400.5 263.9 457.7 263.9 520.3C263.9 655.7 373.5 765.2 508.8 765.2C571.4 765.2 628.6 741.7 671.9 703.1L646.7 683.3ZM441.5 316.9C462.9 309.9 485.5 306.2 508.7 306.2C565.9 306.2 619.4 328.5 659.9 368.8C700.4 409.3 722.5 463 722.5 520C722.5 543.3 718.8 565.8 711.8 587.2L736 611.4C747.4 583.3 753.7 552.3 753.7 520C753.7 384.6 644.1 275.1 508.8 275.1C476.5 275.1 445.5 281.4 417.4 292.8L441.5 316.9ZM470.4 390.7L337.3 253.2L316.6 285.5C314.7 288.5 315 292.5 317.3 295.3L432.7 443.5L470.4 390.7ZM427.1 572.3L373.6 532.1L363.8 548.6C362.6 550.5 362.9 552.8 364.5 554.4L409.6 603.3L427.1 572.3ZM523.2 445.3L510.9 432.5L514.2 419.5C515.6 413.7 516.1 409 515.6 406.2C513.7 397.8 509.8 391.5 509.8 391.5L392.9 516.7C392.9 516.7 400.8 524.4 412.2 515.5C417.3 511.6 437.6 495 459.2 477.1L479 502.5L523.2 445.3ZM637.1 557.5L640.4 544.5C641.6 540.1 642.3 536.4 641.8 533.8C640.4 525.4 637.1 519.1 637.1 519.1L512 635.8C512 635.8 519.7 643.7 531.5 635.8C537.3 631.9 562 614.6 586.6 597L733.6 711.5C736.4 713.8 740.3 714.1 743.4 712.2L775.7 691.5L637.1 557.5ZM457.1 602.8C475.9 588.4 502.2 568.1 525.7 550L552.2 570.7L595.7 517.9L581.3 503.9L586 487.4C588.3 479 589.3 472.5 588.6 468.6C586.3 456.5 580.9 447.7 580.9 447.7L408.7 619.8C408.7 619.8 414.1 624.2 425.2 619.8L473.8 664.7C475.4 666.1 477.7 666.3 479.6 665.4L496.1 655.6L457.1 602.8Z" fill="white"/>
</g>
<defs>
<clipPath id="clip0_2_2211">
<rect width="1024" height="1024" fill="white"/>
</clipPath>
</defs>
</svg>
